X:1
T:The Family Bible
T:Alonzo Judson Abbey
T:The Family Bible
T:Public Domain
T:Public Domain
T:Public Domain
C:Alonzo Judson Abbey
Z:Public Domain
%%score ( 1 2 ) ( 3 4 )
L:1/8
M:3/8
K:F
V:1 treble 
V:2 treble 
V:3 bass 
V:4 bass 
V:1
 C | [CA]>[DB][CA] | [CA][B,G][A,F] | [CE][B,D]>[CE] | [B,D][A,C][A,C] | [B,C][B,G][B,G] | %6
w: 1.~How|ful- ly pleas-|ing the fond|re- col- lect-|ion Of youth-|ful con- nect-|
w: 2.~That|ble, the vol-|ume of God’s|in- spir- a-|tion, At noon|and at ev-|
w: 3.~Ye|of tran- quil-|i- ty! long|have we par-|ted; My hope’s|al- most gone,|
 [B,G][A,F][B,G] | [DB][CA][A,F] | [G,E]2 (C/C/) | [CA]>[DB][CA] | [CA][B,G][A,F] | %11
w: ions and in-|no- cent joy!|When blest *|with pa- rent-|al ad- vice|
w: ening could give|us de- light;|And~the prayer *|of our sire|was a sweet|
w: and my par-|ents no more;|In sor- *|row and sad-|ness I live|
 [CE][B,D]>[CE] | [B,D][A,C][A,C] | [A,F][A,C][A,F] | [A,F][B,G][CA] | [CA][B,G]>[A,F] | [A,F]2 F | %17
w: and af- fect-|ion; Sur- round-|ed with mer-|cies, with peace|from on high.|I still|
w: in- vo- ca-|tion, For mer-|cy by day|and for safe-|ty thro’ night;|Our hymns|
w: brok- en- hear-|ted, And wan-|der un- known|on a far|dist- ant shore;|Yet, how|
 [EG][EG][EG] | [Ec]>[EG][EG][EG][=B,D][DF] | [DF][CE][EG] | [FA][FA][FA] | [EG][Ec][Ec] | %22
w: the chairs of|my sire and my mo- ther,|The seats of|their off- spring|as ranged on|
w: thanks- giv- ing|with har- mo- ny swell- ing|All warm from|the hearts of|that fam- i-|
w: I doubt my|dear Sav- ior’s pro- tect- ion,|For- get- ful|of gifts from|His boun- ti-|
 [F=B][FA][FB] | [Ec]2 (C/C/) | [CA]>[DB][CA] | [CA][B,G][A,F] | [CE][B,D]>[CE] | [B,D][A,C][A,C] | %28
w: each hand; And~that|rich- est *|of books, which|ex- celled ev-|ery o- ther,|The fam- i-|
w: ly band, Half|raised us *|from earth to|that rap- tur-|ous dwell- ing|Des- cribed in|
w: ful hand! Oh!|let me *|with pa- tience|en- dure His|cor- rect- ion,|And think of|
 [B,D][DB][DB] | [DB][CA][A,F] | [B,E]>[B,D][B,E] | [A,F]2 x ||"^Refrain" F x | [EG][Ec]>[EB] | %34
w: ly Bi- ble,|which lay on|the stand. *||||
w: the Bi- ble|that lay on|the stand. The|old|fa-|Bi- ble, the|
w: the Bi- ble|that lay on|the stand. *||||
 [FA]F[CF] | [DG][DF]>[B,D][B,D][A,C][A,C] | [B,D][DB][DB] | [DB][CA]F | [EA][EG]>F | F2 x |] x3 | %41
w: |||||||
w: dear, bless- èd|ble, The fam- i- ly Bi-|ble which lay|on the stand.||||
w: |||||||
 x2 |] %42
w: |
w: |
w: |
V:2
 C | x3 | x3 | x3 | x3 | x3 | x3 | x3 | x3 | x3 | x3 | x3 | x3 | x3 | x3 | x3 | x2 F | x3 | x6 | %19
w: pain-||||||||||||||||view|||
w: Bi-||||||||||||||||of|||
w: scenes||||||||||||||||can|||
 x3 | x3 | x3 | x3 | x3 | x3 | x3 | x3 | x3 | x3 | x3 | x3 | x3 || F x | x3 | x F x | x6 | x3 | %37
w: ||||||||||||||||||
w: |||||||||||||shioned||Bi-|||
w: ||||||||||||||||||
 x2 F | x5/2 F/ | F2 x |] x3 | x2 |] %42
w: |||||
w: |||||
w: |||||
V:3
 z | F,,F,F, | F,,F,F, | B,,F,F, | F,,F,F, | C,,C,C, | C,,C,C, | F,,F,F, | [C,,C,]2 z | %9
 F,,[C,F,A,][C,F,A,] | F,,[C,E,][C,F,] | B,,[D,F,][D,F,] | F,,[C,F,][C,F,] | F,,[C,E,][C,E,] | %14
 F,,[C,E,][C,F,] | C,,[C,E,][C,E,] | [F,,F,]2 z | [C,,C,][C,G,][C,G,] | [C,,C,][C,G,][C,G,] x3 | %19
 G,,G,[B,,G,] | [C,,C,][C,G,][C,G,] | [F,,F,][C,F,A,][C,F,A,] | [C,,C,][C,G,][C,G,] | %23
 G,,G,[G,,G,] | [C,,C,]2 z | F,,[C,F,A,][C,F,A,] | F,,[C,E,][C,F,] | [B,,,B,,][B,,F,][B,,F,] | %28
 F,,[C,F,][C,F,] | [B,,,B,,][B,,F,][B,,F,] | F,,[C,F,A,][C,F,A,] | [C,,C,][C,G,][C,G,] || %32
 [F,,F,]2 | [F,A,] x2 | [C,C][C,C]>[C,C] | [F,C][F,A,][F,A,] x3 | [B,,B,][B,,B,]>[B,,F,] | %37
 [F,,F,][F,,F,][F,,F,] | [B,,F,][B,,F,][B,,F,] | F,F,[F,A,] |] [C,C][C,B,]>[F,,F,A,] | %41
 [F,,F,A,]2 |] %42
V:4
 x | x3 | x3 | x3 | x3 | x3 | x3 | x3 | x3 | x3 | x3 | x3 | x3 | x3 | x3 | x3 | x3 | x3 | x6 | %19
 x F,2 | x3 | x3 | x3 | x3 | x3 | x3 | x3 | x3 | x3 | x3 | x3 | x3 || x2 | x3 | x3 | x6 | x3 | x3 | %38
 x3 | F,F, x |] x3 | x2 |] %42

